src/assets/icons/calendar.svg

<svg width="15" height="15" viewBox="0 0 15 15" fill="none" xmlns="http://www.w3.org/2000/svg">
<path d="M13.0664 1.17188H11.7188V0.46875C11.7188 0.209883 11.5089 0 11.25 0C10.9911 0 10.7812 0.209883 10.7812 0.46875V1.17188H4.21875V0.46875C4.21875 0.209883 4.0089 0 3.75 0C3.4911 0 3.28125 0.209883 3.28125 0.46875V1.17188H1.93359C0.867393 1.17188 0 2.03927 0 3.10547V13.0664C0 14.1326 0.867393 15 1.93359 15H13.0664C14.1326 15 15 14.1326 15 13.0664V3.10547C15 2.03927 14.1326 1.17188 13.0664 1.17188ZM1.93359 2.10938H3.28125V2.57812C3.28125 2.83699 3.4911 3.04688 3.75 3.04688C4.0089 3.04688 4.21875 2.83699 4.21875 2.57812V2.10938H10.7812V2.57812C10.7812 2.83699 10.9911 3.04688 11.25 3.04688C11.5089 3.04688 11.7188 2.83699 11.7188 2.57812V2.10938H13.0664C13.6157 2.10938 14.0625 2.55621 14.0625 3.10547V4.21875H0.9375V3.10547C0.9375 2.55621 1.38434 2.10938 1.93359 2.10938ZM13.0664 14.0625H1.93359C1.38434 14.0625 0.9375 13.6157 0.9375 13.0664V5.15625H14.0625V13.0664C14.0625 13.6157 13.6157 14.0625 13.0664 14.0625Z" fill="#696969"/>
</svg>

<svg xmlns="http://www.w3.org/2000/svg" width="15" height="15" fill="none"><path fill="#696969" d="M13.066 1.172H11.72V.469a.469.469 0 0 0-.938 0v.703H4.22V.469a.469.469 0 1 0-.938 0v.703H1.934A1.936 1.936 0 0 0 0 3.105v9.961C0 14.133.867 15 1.934 15h11.132A1.936 1.936 0 0 0 15 13.066v-9.96a1.936 1.936 0 0 0-1.934-1.934Zm-11.132.937H3.28v.47a.469.469 0 1 0 .938 0v-.47h6.562v.47a.469.469 0 0 0 .938 0v-.47h1.347c.55 0 .996.447.996.996V4.22H.938V3.105c0-.549.446-.996.996-.996Zm11.132 11.954H1.934a.997.997 0 0 1-.996-.997v-7.91h13.124v7.91c0 .55-.446.996-.996.996Z"/></svg>
